!! 00006] TT[TB
!! Eigene Aufnahme
!!!OTL: Jian jian shan
!!!ARE: Asia, China,ÿSichuan, Chuanbei
!! Ethnic Group: Han
!! II, 236
!!!SCT: C0148
!!!YEM: Copyright 1995, estate of Helmut Schaffrath.
**kern
*ICvox
*Ivox
*M2/4
*k[f#c#g#d#]
*E:
{4.cc#
8cc#
=1
8ee
4.cc#
=2
4.cc#
8b
=3
2g#}
=4
{4.cc#
8b
=5
8g#
4.cc#
=6
4.cc#
8b
=7
2g#}
=8
{8f#
4g#
16e
16f#
=9
2g#
=10
8e
4g#
8e
=11
2c#}
=12
{8c#
4e
8c#
=13
2g#
=14
4.cc#
8b
=15
2g#}
=16
{12cc#
12cc#
12cc#
8ee
8cc#
=17
16ee
[8.cc#
4cc#]}
=18
{4.cc#
8b
=19
2g#
=20
8e
4g#
8e
=21
2c#}
==
!!!AGN: Shange. Geming lishi minge
!! Saengerin: Huang Bai
!!    Vereinzelt Verzierungen.
!!    Die Phraseneinteilung und eine WDH am Ende wurden nachtraeglich
!!    quasi transkribiert. Leichte Variante?
!!!ONB: ESAC (Essen Associative Code) Database: CHINA
!!!AMT: simple duple
!!!AIN: vox
!!!EED: Helmut Schaffrath
!!!EEV: 1.0
*-
